fileicons/icons/php.svg

<svg xmlns="http://www.w3.org/2000/svg" width="24" height="24" viewBox="0 0 24 24"><path d="M12 18.08c-6.63 0-12-2.72-12-6.08s5.37-6.08 12-6.08S24 8.64 24 12s-5.37 6.08-12 6.08m-5.19-7.95c.54 0 .91.1 1.09.31.18.2.22.56.13 1.03-.1.53-.29.87-.58 1.09-.28.22-.71.33-1.29.33h-.87l.53-2.76h.99m-3.5 5.55h1.44l.34-1.75h1.23c.54 0 .98-.06 1.33-.17.35-.12.67-.31.96-.58.24-.22.43-.46.58-.73.15-.26.26-.56.31-.88.16-.78.05-1.39-.33-1.82-.39-.44-.99-.65-1.82-.65H4.59l-1.28 6.58m7.25-8.33l-1.28 6.58h1.42l.74-3.77h1.14c.36 0 .6.06.71.18.11.12.13.34.07.66l-.57 2.93h1.45l.59-3.07c.13-.62.03-1.07-.27-1.36-.3-.27-.85-.4-1.65-.4h-1.27L12 7.35h-1.44M18 10.13c.55 0 .91.1 1.09.31.18.2.22.56.13 1.03-.1.53-.29.87-.57 1.09-.29.22-.72.33-1.3.33h-.85l.5-2.76h1m-3.5 5.55h1.44l.34-1.75h1.22c.55 0 1-.06 1.35-.17.35-.12.65-.31.95-.58.24-.22.44-.46.58-.73.15-.26.26-.56.32-.88.15-.78.04-1.39-.34-1.82-.36-.44-.99-.65-1.82-.65h-2.75l-1.29 6.58z" fill="#1976d2"/></svg>

<?xml version="1.0" encoding="UTF-8" standalone="no"?>
<svg
   xmlns:dc="http://purl.org/dc/elements/1.1/"
   xmlns:cc="http://creativecommons.org/ns#"
   xmlns:rdf="http://www.w3.org/1999/02/22-rdf-syntax-ns#"
   xmlns:svg="http://www.w3.org/2000/svg"
   xmlns="http://www.w3.org/2000/svg"
   xmlns:sodipodi="http://sodipodi.sourceforge.net/DTD/sodipodi-0.dtd"
   xmlns:inkscape="http://www.inkscape.org/namespaces/inkscape"
   version="1.1"
   width="24"
   height="24"
   viewBox="0 0 24 24"
   id="svg2"
   inkscape:version="0.91 r13725"
   sodipodi:docname="language-php.svg">
  <metadata
     id="metadata10">
    <rdf:RDF>
      <cc:Work
         rdf:about="">
        <dc:format>image/svg+xml</dc:format>
        <dc:type
           rdf:resource="http://purl.org/dc/dcmitype/StillImage" />
      </cc:Work>
    </rdf:RDF>
  </metadata>
  <defs
     id="defs8" />
  <sodipodi:namedview
     pagecolor="#ffffff"
     bordercolor="#666666"
     borderopacity="1"
     objecttolerance="10"
     gridtolerance="10"
     guidetolerance="10"
     inkscape:pageopacity="0"
     inkscape:pageshadow="2"
     inkscape:window-width="729"
     inkscape:window-height="480"
     id="namedview6"
     showgrid="false"
     inkscape:zoom="9.8333333"
     inkscape:cx="12"
     inkscape:cy="11.898305"
     inkscape:window-x="0"
     inkscape:window-y="0"
     inkscape:window-maximized="0"
     inkscape:current-layer="svg2" />
  <path
     d="M12,18.08C5.37,18.08 0,15.36 0,12C0,8.64 5.37,5.92 12,5.92C18.63,5.92 24,8.64 24,12C24,15.36 18.63,18.08 12,18.08M6.81,10.13C7.35,10.13 7.72,10.23 7.9,10.44C8.08,10.64 8.12,11 8.03,11.47C7.93,12 7.74,12.34 7.45,12.56C7.17,12.78 6.74,12.89 6.16,12.89H5.29L5.82,10.13H6.81M3.31,15.68H4.75L5.09,13.93H6.32C6.86,13.93 7.3,13.87 7.65,13.76C8,13.64 8.32,13.45 8.61,13.18C8.85,12.96 9.04,12.72 9.19,12.45C9.34,12.19 9.45,11.89 9.5,11.57C9.66,10.79 9.55,10.18 9.17,9.75C8.78,9.31 8.18,9.1 7.35,9.1H4.59L3.31,15.68M10.56,7.35L9.28,13.93H10.7L11.44,10.16H12.58C12.94,10.16 13.18,10.22 13.29,10.34C13.4,10.46 13.42,10.68 13.36,11L12.79,13.93H14.24L14.83,10.86C14.96,10.24 14.86,9.79 14.56,9.5C14.26,9.23 13.71,9.1 12.91,9.1H11.64L12,7.35H10.56M18,10.13C18.55,10.13 18.91,10.23 19.09,10.44C19.27,10.64 19.31,11 19.22,11.47C19.12,12 18.93,12.34 18.65,12.56C18.36,12.78 17.93,12.89 17.35,12.89H16.5L17,10.13H18M14.5,15.68H15.94L16.28,13.93H17.5C18.05,13.93 18.5,13.87 18.85,13.76C19.2,13.64 19.5,13.45 19.8,13.18C20.04,12.96 20.24,12.72 20.38,12.45C20.53,12.19 20.64,11.89 20.7,11.57C20.85,10.79 20.74,10.18 20.36,9.75C20,9.31 19.37,9.1 18.54,9.1H15.79L14.5,15.68Z"
     id="path4"
     style="fill:#1976d2;fill-opacity:1" />
</svg>
